X:1
T:Pater Omnium
T:Pater Omnium
T:Henry James Ernest Holmes, 1875
T:Public Domain Courtesy of the Cyber Hymnal™
C:Henry James Ernest Holmes, 1875
Z:Public Domain
Z:Courtesy of the Cyber Hymnal™
%%score ( 1 2 ) ( 3 4 )
L:1/8
M:3/4
K:F
V:1 treble 
V:2 treble 
V:3 bass 
V:4 bass 
V:1
 F2 [EG]2 [_EA]2 | (c2 B2) [DG]2 | [CF]4 [EG]2 | [FA]6 | [FB]2 [FA]2 [Ed]2 | [Fc]4 [DF]2 | %6
 (F2 E2) [_B,F]2 | [CG]6 | [Ec]2 [^Fd]2 [DA]2 | [DB]4 [DB]2 | (B2 c2) [EG]2 | [FA]6 | %12
 [FA]2 [DA]2 [D=B]2 | [Cc]4 [F=B]2 | [EA]4 [D^G]2 | [CA]6 | [CG]2 [CE]2 [B,C]2 | [A,A]4 [CA]2 | %18
 (G2 E2) C2 | [Cc]6 | [Dc]2 [DB]2 [DG]2 | z2 B2 [FA]2 | (G2 D2) [CE]2 | [CF]6 |] %24
V:2
 x6 | D4 x2 | x6 | x6 | x6 | x6 | =B,4 x2 | x6 | x6 | x6 | C4 x2 | x6 | x6 | x6 | x6 | x6 | x6 | %17
 x6 | C4 x2 | x6 | x6 | F4 x2 | D4 x2 | x6 |] %24
V:3
 [F,A,]2 [F,B,]2 [F,C]2 | [B,,D]4 [B,,B,]2 | [C,A,]4 [C,C]2 | [F,C]6 | [D,B,]2 [C,C]2 [B,,G,]2 | %5
 [A,,C]4 [D,A,]2 | [G,,G,]4 [G,,F,]2 | [C,E,]6 | [A,,A,]2 [D,A,]2 [^F,C]2 | [G,B,]4 [G,B,]2 | %10
 [E,G,]4 [C,C]2 | [F,C]6 | [D,D]2 [F,A,]2 [E,^G,]2 | [A,,A,]4 [D,=B,]2 | [E,C]4 [E,=B,]2 | %15
 [A,,A,]6 | [C,E,]2 [C,G,]2 [C,E,]2 | [F,,F,]4 F,2 | (E,2 G,2) [B,,E,]2 | [A,,F,]6 | %20
 [B,,F,]2 [B,,G,]2 [B,,B,]2 | (A,2 D2) [C,C]2 | [C,B,]4 [C,G,]2 | [F,,F,A,]6 |] %24
V:4
 x6 | x6 | x6 | x6 | x6 | x6 | x6 | x6 | x6 | x6 | x6 | x6 | x6 | x6 | x6 | x6 | x6 | x4 F,2 | %18
 C,4 x2 | x6 | x6 | C,4 x2 | x6 | x6 |] %24

